X:1
T:Title
%%score { ( 1 2 ) | ( 3 4 ) }
L:1/8
M:4/4
K:Eb
V:1 treble nm="Grand Piano"
V:2 treble 
V:3 bass 
V:4 bass 
V:1
 z4 z2[Q:1/4=110] z F | G2 G2 G2 EG | [GB]2 [GB]2 [GB]2 [GB]2 | [EAc]2 [EAc]2 [EGB]2 [B,EG]2 | %4
[M:7/8] [B,EG]- [B,EG]3 [B,DF]3 |[M:1/4] D-[DF] |[M:4/4] E2 E2 E2 GA | %7
 [EGB]2 [EGB]2 [EGB]2 .[EBe]2 | [EAc]2 [EAc]2 [EGB]2 [B,EG]2 |[M:7/8] [A,DF]- [A,DF]3 [G,B,E]3 | %10
[M:1/4] E2 |[M:4/4] [EGB]2 [B,GB]2 [EGB]2 [EGB]2 | [EAc]2 [EAc]2 [EGB]2 [B,GB]2 | %13
 [Ge]2 [Ae]2 [Be]2 [Ge]2 |[M:7/8] e- e3 d3 |[M:1/4] B2 |[M:4/4] [Ge]2 [Ge]2 [Ge]2 [EGB]2 | %17
 [EAc]2 [EAc]2 [EGB]2 E-[EF] | [B,EG]2 [EGB]2 [EGB]2 [B,EG]2 |[M:7/8] [A,DF]- [A,DF]3 [G,B,E]3 |] %20
V:2
 z4 z2 E2 | x8 | x8 | x8 |[M:7/8] x7 |[M:1/4] [B,G] z |[M:4/4] x8 | x8 | x8 |[M:7/8] x7 | %10
[M:1/4] G,G |[M:4/4] x8 | x8 | x8 |[M:7/8] x7 |[M:1/4] x2 |[M:4/4] x8 | z4 z2 .G,2 | x8 | %19
[M:7/8] x7 |] %20
V:3
 z4 z2 G,A, | [E,B,E]2 [E,B,E]2 [E,B,E]2 [G,B,][B,E] | [E,E]2 [E,E]2 [E,E]2 [E,E]2 | %3
 A,2 A,2 E,2 E,2 |[M:7/8] B,,- B,,3 B,,3 |[M:1/4] z A, |[M:4/4] [E,G,]2 [E,G,B,]2 [E,G,B,]2 EF | %7
 E,2 E,2 E,2 z[K:treble] d | A,2[K:bass] A,2 E,2 E,2 |[M:7/8] B,,- B,,3 E,3 |[M:1/4] z B, | %11
[M:4/4] E,2 E,2 G,2 E,2 | A,2 A,2 E,2 E,2 | [E,B,]2 [F,B,]2 [G,B,]2 [E,B,]2 | %14
[M:7/8][K:treble] [B,G]- [B,G]3 [B,F]3 |[M:1/4] [B,DA]2 | %16
[M:4/4][K:bass] [E,B,]2 [E,B,]2 [E,B,]2 E,2 | A,2 A,2 E,2 z A, | E,2 E,2 E,2 E,2 | %19
[M:7/8] B,,- B,,3 E,3 |] %20
V:4
 z4 z2 E,2 | z4 z2 E,2 | x8 | x8 |[M:7/8] x7 |[M:1/4] B,,2 |[M:4/4] z4 z2 [E,B,]2 | %7
 z4 z2 G,2[K:treble] | x2[K:bass] x6 |[M:7/8] x7 |[M:1/4] E,2 |[M:4/4] x8 | x8 | x8 | %14
[M:7/8][K:treble] x7 |[M:1/4] x2 |[M:4/4][K:bass] x8 | z4 z2 E,2 | x8 |[M:7/8] x7 |] %20

